X:18860
T:Winyadepla
N:sung by the fairies to Gibbie Laurenson in 1803
M:2/4
L:1/8
K:Bdor
c2 e>A|c2 c>B|c2 e>A|F4|c2 e>A|c2c>B|cdec|B4:|
c<A AA|faea|faea|c<AA2|c<AA2|faea|faec|B4|
c<A A2|faea|faea|c<AA2|fgbg|afec|(B4|B4)|]


